svgs/thin/signature-lock.svg

<svg xmlns="http://www.w3.org/2000/svg" viewBox="0 0 640 512"><!--! Font Awesome Pro 6.4.2 by @fontawesome - https://fontawesome.com License - https://fontawesome.com/license (Commercial License) Copyright 2023 Fonticons, Inc. --><path d="M104 48c-39.8 0-72 32.2-72 72v40c0 4.4-3.6 8-8 8s-8-3.6-8-8V120c0-48.6 39.4-88 88-88s88 39.4 88 88v15.9c0 25.1-1.8 50.2-5.4 75l171.2-50.6c3.2-.9 6.6 .2 8.6 2.8s2.2 6.3 .4 9.1L294.4 288H408c4.4 0 8 3.6 8 8s-3.6 8-8 8H280c-2.9 0-5.6-1.6-7-4.1s-1.3-5.7 .2-8.1L342 181.6 183.7 228.4c-1.2 6.7-2.6 13.4-4.1 20.1l-4.8 21.8c-10.1 45.5-26.3 89.3-48 130.5l-27 51C90.6 469.2 72.6 480 52.9 480C23.7 480 0 456.3 0 427.1V319.8c0-31.9 21-60 51.6-69l118-34.9c4.3-26.5 6.4-53.2 6.4-80V120c0-39.8-32.2-72-72-72zm62.4 185.5L56.1 266.1C32.3 273.2 16 295 16 319.8V427.1C16 447.5 32.5 464 52.9 464c13.7 0 26.2-7.6 32.6-19.7l27-51c21.1-39.9 36.8-82.4 46.6-126.5l4.8-21.8c.9-3.8 1.7-7.7 2.4-11.5zM208 376c0-4.4 3.6-8 8-8H376c4.4 0 8 3.6 8 8s-3.6 8-8 8H216c-4.4 0-8-3.6-8-8zM528 208c-26.5 0-48 21.5-48 48v64h96V256c0-26.5-21.5-48-48-48zm-64 48c0-35.3 28.7-64 64-64s64 28.7 64 64v64h16c17.7 0 32 14.3 32 32V480c0 17.7-14.3 32-32 32H448c-17.7 0-32-14.3-32-32V352c0-17.7 14.3-32 32-32h16V256zm-16 80c-8.8 0-16 7.2-16 16V480c0 8.8 7.2 16 16 16H608c8.8 0 16-7.2 16-16V352c0-8.8-7.2-16-16-16H592 576 480 464 448z"/></svg>

<svg xmlns="http://www.w3.org/2000/svg" viewBox="0 0 640 512"><!--! Font Awesome Pro 6.1.1 by @fontawesome - https://fontawesome.com License - https://fontawesome.com/license (Commercial License) Copyright 2022 Fonticons, Inc. --><path d="M103.1 48C64.24 48 31.1 80.24 31.1 120V160C31.1 164.4 28.42 168 23.1 168C19.58 168 15.1 164.4 15.1 160V120C15.1 71.4 55.4 32 103.1 32C152.6 32 191.1 71.4 191.1 120V135.9C191.1 160.1 190.2 186.1 186.6 210.9L357.7 160.3C360.9 159.4 364.4 160.5 366.4 163.2C368.4 165.8 368.5 169.4 366.8 172.2L294.4 287.1H408C412.4 287.1 416 291.6 416 295.1C416 300.4 412.4 303.1 408 303.1H280C277.1 303.1 274.4 302.4 273 299.9C271.6 297.3 271.7 294.2 273.2 291.8L342 181.6L183.7 228.4C182.5 235.2 181.1 241.9 179.6 248.5L174.8 270.3C164.7 315.8 148.5 359.6 126.7 400.8L99.73 451.8C90.56 469.2 72.55 480 52.94 480C23.7 480 0 456.3 0 427.1V319.8C0 287.9 20.1 259.8 51.6 250.8L169.6 215.9C173.9 189.5 176 162.7 176 135.9V120C176 80.24 143.8 48 104 48H103.1zM166.4 233.5L56.13 266.1C32.33 273.2 16 295 16 319.8V427.1C16 447.5 32.54 464 52.94 464C66.62 464 79.19 456.4 85.59 444.3L112.6 393.3C133.7 353.4 149.4 310.9 159.2 266.8L164 245.1C164.9 241.2 165.7 237.4 166.4 233.5V233.5zM207.1 376C207.1 371.6 211.6 368 215.1 368H376C380.4 368 384 371.6 384 376C384 380.4 380.4 384 376 384H215.1C211.6 384 207.1 380.4 207.1 376zM528 192C563.3 192 592 220.7 592 256V320H608C625.7 320 640 334.3 640 352V480C640 497.7 625.7 512 608 512H448C430.3 512 416 497.7 416 480V352C416 334.3 430.3 320 448 320H464V256C464 220.7 492.7 192 528 192zM528 208C501.5 208 480 229.5 480 256V320H576V256C576 229.5 554.5 208 528 208zM432 352V480C432 488.8 439.2 496 448 496H608C616.8 496 624 488.8 624 480V352C624 343.2 616.8 336 608 336H448C439.2 336 432 343.2 432 352z"/></svg>
